logos/bugherd-icon.svg

<?xml version="1.0" encoding="UTF-8"?>
<svg width="256px" height="256px" viewBox="0 0 256 256" version="1.1" xmlns="http://www.w3.org/2000/svg" preserveAspectRatio="xMidYMid">
    <title>BugHerd</title>
    <g>
        <circle fill="#222222" cx="128" cy="128" r="128"></circle>
        <path d="M50.4181061,123.011971 C51.9967389,122.819648 53.1612992,121.824373 53.2421796,120.289892 C53.4054056,117.194293 53.4106804,114.072348 53.1680393,110.985823 C53.1044485,110.17643 52.0181311,109.03684 51.1809019,108.787728 C50.3328626,108.535169 49.4339022,108.453006 48.5178375,108.406571 L47.412514,108.35938 C47.042779,108.34362 46.6724715,108.324958 46.3037559,108.294774 L46.3037559,123.247324 C47.7302984,123.172386 49.0844588,123.174728 50.4181061,123.011971 Z M46.3116682,146.124316 L47.2424737,146.073623 L47.2424737,146.073623 L49.0703194,145.992954 C49.973557,145.946923 50.8613365,145.879742 51.736222,145.734695 C53.4226953,145.45514 54.6039592,144.273689 54.6874769,142.554497 C54.8331203,139.554913 54.8539265,136.536008 54.6798578,133.539643 C54.5746547,131.731169 53.3670167,130.476829 51.5111635,130.224791 C50.675253,130.111358 49.8310639,130.058448 48.9680101,130.021564 L47.2136128,129.955982 C46.9159755,129.944219 46.615458,129.93094 46.3116682,129.914499 L46.3116682,146.124316 Z M57.3052469,126.34468 C61.4108239,128.393264 62.7324166,131.836045 62.6567487,136.018067 L62.6451107,136.425064 C62.62323,136.986777 62.61844,137.550947 62.6197296,138.115872 L62.6308259,139.811209 C62.63692,141.22304 62.612192,142.628948 62.3845938,144.00233 C61.5116131,149.268801 57.2771146,152.70982 51.906481,152.818129 C48.68709,152.883115 45.4647684,152.853256 42.2442052,152.823984 C40.0393355,152.804078 38.5571145,151.358294 38.554184,149.15815 C38.5357222,134.533748 38.5377735,119.909346 38.5524258,105.284944 C38.554184,103.302297 39.8037274,101.671509 41.6346718,101.647212 L44.2351658,101.60917 C47.2727541,101.568963 50.3176894,101.573087 53.3119243,101.9335 C58.1319265,102.513395 61.0453787,106.116877 61.1957107,110.985531 C61.2783494,113.663992 61.2806938,116.349187 61.1968829,119.027649 C61.1075188,121.881982 59.7891488,124.158273 57.6498016,126.049275 L57.3052469,126.34468 Z M138.347102,130.380229 L129.746235,130.380229 L129.750539,141.904374 C129.750384,144.446762 129.74811,146.980897 129.74096,149.514985 C129.731876,152.73558 126.511019,154.521806 123.720353,152.883407 C122.278279,152.036838 121.928383,150.68824 121.931278,149.136781 L121.938931,138.237014 L121.938931,138.237014 L121.936882,127.337028 C121.936882,119.924275 121.926332,112.511229 121.943036,105.098476 C121.948897,102.431723 123.43522,100.959008 125.989692,101.000869 C128.227969,101.03746 129.732462,102.524225 129.740081,104.790234 L129.750191,112.9834 L129.750191,112.9834 L129.746235,122.879072 L129.746235,122.879072 L138.269738,122.879072 L138.329867,121.778024 C138.33805,121.591979 138.343585,121.405186 138.343878,121.218426 L138.342402,110.391672 C138.343618,108.587242 138.347395,106.782834 138.356479,104.978458 C138.369373,102.424112 139.874159,100.976865 142.374125,101.000869 C144.643757,101.02253 146.140924,102.470363 146.149715,104.742226 L146.160916,110.106837 L146.160916,110.106837 L146.156748,120.836123 L146.156748,120.836123 L146.155869,149.219623 L146.155869,149.219623 C146.15499,151.963656 144.783833,153.428467 142.245185,153.417343 C139.744047,153.406512 138.3556,151.907452 138.350618,149.162541 L138.345124,140.676683 L138.345124,140.676683 L138.347102,130.380229 Z M105.998008,151.181714 L104.153453,151.072299 L104.153453,151.072299 L104.149937,151.123526 L104.149937,151.123526 L103.126624,151.123526 L103.126624,151.123526 C101.230623,151.125283 100.42182,151.821683 99.7738973,154.01041 C99.1989432,155.952954 99.6736758,157.670682 101.038093,158.585458 C103.053949,159.936983 107.27233,159.646011 109.003053,157.975412 C110.211863,156.808305 110.645276,155.379792 110.174939,153.713291 C109.708119,152.057621 108.476744,151.432647 106.917452,151.261987 L105.998008,151.181714 L105.998008,151.181714 Z M108.045382,128.23424 L108.039814,128.23424 L108.064357,126.190998 C108.07117,125.510039 108.067067,124.829812 108.023404,124.152147 C107.889189,122.075241 106.607704,120.902279 104.641959,120.9158 C102.702588,120.929796 101.404106,122.142276 101.339929,124.228841 C101.257583,126.899985 101.256997,129.577276 101.340222,132.248127 C101.405278,134.326789 102.716654,135.550393 104.647234,135.56379 C106.648144,135.577324 107.925527,134.336156 108.033367,132.170847 C108.066042,131.516307 108.069045,130.86023 108.063881,130.203751 L108.045382,128.23424 Z M113.673602,120.412545 C115.174268,122.0667 115.441395,123.97912 115.399221,125.970185 L115.387915,126.344387 C115.36662,126.895171 115.358798,127.448211 115.354956,128.001896 L115.345875,129.663278 C115.332435,131.046695 115.284535,132.424089 115.053844,133.770313 C114.228922,138.58569 110.311791,141.662847 105.428198,141.706757 L103.992111,141.712201 L103.992111,141.712201 L101.28132,141.708513 L101.28132,141.708513 L101.263543,141.905305 L101.263543,141.905305 L101.156079,142.616844 C101.100103,143.041 101.083189,143.486218 101.269598,143.817326 C101.587552,144.381706 102.574234,144.791232 103.304795,144.85856 C104.950828,145.010486 106.620305,144.903933 108.280111,144.910666 C114.671127,144.936133 118.612288,149.584947 117.612418,155.914021 C116.856363,160.69954 113.644005,163.935649 108.383263,165.027817 C105.046654,165.720704 101.677224,165.662159 98.3757801,164.778413 C92.4000089,163.178947 90.1555781,156.698532 94.0143932,152.216866 C94.3409917,151.837636 94.7194592,151.502902 95.1258758,151.168021 L95.9688872,150.484837 C96.1132375,150.366531 96.2589215,150.244903 96.4050532,150.118298 C94.4501509,148.747745 93.6249364,146.833011 93.8215696,144.474501 C94.013807,142.173658 95.247233,140.500717 97.1751752,139.109673 C94.1538825,136.126481 93.7699936,132.401224 93.974539,128.505306 L94.0090073,127.629671 L94.0090073,127.629671 L94.044957,125.873234 C94.0699281,124.702595 94.1177961,123.53608 94.313885,122.394607 C95.0550989,118.080553 98.5036377,115.209561 102.835627,114.770604 L103.231827,114.737426 C106.676276,114.509098 110.104608,114.034586 113.539681,113.669262 C113.830674,113.638232 114.120789,113.59403 114.412368,113.572369 C116.96391,113.383559 118.027077,114.112159 118.272648,116.212776 C118.547818,118.568651 117.555861,119.848459 115.117727,120.262083 C114.948699,120.290653 114.778217,120.31084 114.596736,120.328619 L113.673602,120.412545 Z M209.435688,134.287856 C209.435688,130.826347 209.35891,127.362203 209.473783,123.904499 C209.518913,122.549753 208.905863,121.949953 207.818666,121.533987 C205.297895,120.56974 203.322771,121.910142 203.310464,124.672324 C203.281745,131.01018 203.29288,137.348328 203.315152,143.686184 C203.317204,144.307353 203.421821,144.958087 203.628417,145.54208 C204.086154,146.834182 205.441779,147.450374 207.003415,147.171112 C208.766373,146.855551 209.433636,146.134269 209.434809,144.526021 L209.435688,134.287856 Z M209.538546,150.336966 C208.015592,152.383721 206.177028,153.640109 203.706659,153.705388 C199.074207,153.827748 195.851885,150.860949 195.807636,146.216525 C195.730564,138.118789 195.749319,130.019588 195.806463,121.921559 C195.825511,119.187771 196.774684,116.788279 199.423223,115.545063 C202.211838,114.235983 205.010417,114.387031 207.65251,116.046506 C207.896532,116.199812 208.124515,116.378549 208.362986,116.580437 L209.136391,117.25327 C209.231716,117.335239 209.331154,117.419526 209.435688,117.506048 L209.436566,105.035832 L209.436566,105.035832 C209.439791,102.347125 210.662081,101.015212 213.12776,101.000333 C215.660254,100.985647 216.947013,102.33805 216.948479,105.083254 C216.955805,119.328573 216.951996,133.573893 216.951996,147.819504 L216.957509,149.088079 C216.956815,149.299472 216.954047,149.51079 216.947307,149.721944 C216.883716,151.708397 215.855422,153.081877 214.226972,153.379874 C212.165694,153.756615 210.648015,152.977958 209.81899,151.111817 L209.767797,150.988574 L209.767797,150.988574 L209.538546,150.336966 Z M81.2191744,150.363019 C79.3038331,153.568976 76.3666443,154.173753 73.0719407,153.531507 C69.8194356,152.897458 67.6796218,150.214898 67.6424051,146.483786 C67.5492168,137.118829 67.5890709,127.752117 67.6192546,118.386282 C67.6254084,116.495551 68.9845506,115.185886 70.8339569,115.054451 C73.1750925,114.887888 74.6775336,115.916242 75.0274292,117.965046 C75.0944632,118.357814 75.109903,118.761449 75.1135569,119.164097 L75.1217896,142.103111 L75.1217896,142.103111 C75.1220826,142.735696 75.144647,143.370623 75.1982743,144.000867 C75.3940283,146.308149 76.7678228,147.273274 79.0011178,146.682841 C80.2559359,146.35118 80.954555,145.731182 80.94254,144.232122 C80.8757258,135.842242 80.903272,127.451485 80.9152869,119.06102 C80.9188034,116.490282 82.2076149,115.088114 84.5279443,115.051816 C87.0551633,115.012005 88.4216316,116.338942 88.4236829,118.890359 C88.431595,129.0369 88.4274924,139.183441 88.4266133,149.329981 C88.4266133,151.770748 87.6444765,153.028893 85.9199074,153.371971 C83.5945963,153.834774 82.1642443,152.949271 81.2191744,150.363019 Z M165.561301,130.456046 L165.567202,129.42103 L165.567202,129.42103 L165.594357,127.399296 C165.610371,126.069683 165.610323,124.772145 165.522912,123.480628 C165.411262,121.832277 164.32641,121.015273 162.80873,121.021923 C161.383067,121.028445 160.17748,121.865062 160.076966,123.338655 C159.996965,124.511909 159.986269,125.689847 159.995573,126.875176 L160.026239,129.256492 C160.030925,129.655288 160.034181,130.055106 160.034181,130.456046 L165.561301,130.456046 Z M159.956818,136.439408 L159.952145,137.861304 L159.952145,137.861304 L159.93396,140.627102 C159.928319,141.989386 159.934253,143.326128 159.980554,144.661554 C160.044731,146.510717 161.173833,147.532924 162.830416,147.524727 C164.518061,147.516531 165.546063,146.519792 165.739179,144.696096 C165.764967,144.454302 165.764088,144.209582 165.771121,143.966325 C165.844089,141.497163 166.9981,140.328593 169.344803,140.349377 C171.662202,140.369575 172.843759,141.607815 172.871306,144.043898 C172.937241,149.878261 169.197109,153.698948 163.342072,153.690778 C161.940732,153.688702 160.496606,153.612593 159.146549,153.274785 C155.171395,152.280095 152.681392,149.42424 152.528716,144.861487 C152.295745,137.903341 152.26732,130.919727 152.588497,123.96685 C152.917294,116.852387 158.372324,113.885002 165.015945,114.919503 C169.966645,115.690256 172.89006,119.243097 173.060906,124.383695 C173.121038,126.194862 173.126524,128.008347 173.11262,129.822001 L173.069404,133.448898 L173.069404,133.448898 C173.043323,135.428618 171.949093,136.43004 169.910966,136.436773 L165.986134,136.442127 L165.986134,136.442127 L159.956818,136.439408 Z M185.625205,118.766243 C186.254079,115.951077 187.899819,114.807974 190.553341,115.045376 C192.65037,115.232722 193.683353,116.518677 193.629726,119.015062 C193.580494,121.307708 192.385457,122.704899 190.388356,122.71251 C189.954767,122.714091 189.520334,122.658133 189.086449,122.590541 L188.219824,122.453446 L188.219824,122.453446 C186.577601,122.21458 186.011731,122.687921 186.011438,124.333345 C186.010266,132.769476 186.020229,141.205899 186.00587,149.642029 C186.000889,152.550575 183.498871,154.23142 180.76359,153.204823 C179.167082,152.605608 178.497474,151.443478 178.496302,149.202059 C178.4922,139.253988 178.492493,129.30621 178.496009,119.358139 C178.496595,116.857656 179.352286,115.617367 181.225136,115.363572 C183.743564,115.022251 184.833984,115.811738 185.625205,118.766243 Z" fill="#FFFFFF"></path>
        <path d="M231.693912,148.847273 C231.675156,151.578426 229.788533,153.425247 227.058235,153.385436 C224.445447,153.347381 222.645272,151.456943 222.654612,148.761211 C222.664319,146.028301 224.533066,144.209582 227.28974,144.250271 C229.92861,144.288911 231.712373,146.150954 231.693912,148.847273" fill="#86BAD3"></path>
    </g>
</svg>

<?xml version="1.0" encoding="UTF-8"?>
<svg width="256" height="256" version="1.1" xmlns="http://www.w3.org/2000/svg" preserveAspectRatio="xMidYMid">
	<circle fill="#222" cx="128" cy="128" r="128"/>
	<path d="M50.418 123.012c1.579-.192 2.743-1.188 2.824-2.722.163-3.096.169-6.218-.074-9.304-.064-.81-1.15-1.95-1.987-2.198-.848-.253-1.747-.335-2.663-.381l-1.105-.048a28.44 28.44 0 0 1-1.11-.064v14.952c1.427-.075 2.781-.072 4.115-.235Zm-4.106 23.112.93-.05 1.828-.081c.904-.046 1.791-.113 2.666-.258 1.687-.28 2.868-1.461 2.951-3.18.146-3 .167-6.019-.007-9.015-.105-1.809-1.313-3.063-3.169-3.315a27.664 27.664 0 0 0-2.543-.203l-1.754-.066a61.894 61.894 0 0 1-.902-.042v16.21Zm10.993-19.78c4.106 2.05 5.427 5.492 5.352 9.674l-.012.407a41.06 41.06 0 0 0-.025 1.69l.01 1.696c.007 1.412-.018 2.818-.245 4.191-.873 5.267-5.108 8.708-10.479 8.816-3.219.065-6.441.035-9.662.006-2.205-.02-3.687-1.466-3.69-3.666-.018-14.624-.016-29.249-.002-43.873.002-1.983 1.252-3.613 3.083-3.638l2.6-.038c3.038-.04 6.083-.036 9.077.325 4.82.58 7.733 4.183 7.884 9.052.082 2.678.085 5.363 0 8.042-.088 2.854-1.407 5.13-3.546 7.021l-.345.296Zm81.042 4.036h-8.6l.004 11.524c0 2.543-.003 5.077-.01 7.611-.01 3.22-3.23 5.007-6.02 3.368-1.443-.846-1.793-2.195-1.79-3.746l.008-10.9-.002-10.9c0-7.413-.01-14.826.006-22.239.006-2.666 1.492-4.139 4.047-4.097 2.238.036 3.742 1.523 3.75 3.79l.01 8.192-.004 9.896h8.524l.06-1.101c.008-.186.014-.373.014-.56l-.002-10.826c.002-1.805.005-3.61.014-5.414.013-2.554 1.518-4.001 4.018-3.977 2.27.022 3.767 1.47 3.776 3.741l.01 5.365-.003 10.73-.001 28.383c-.001 2.744-1.372 4.208-3.91 4.197-2.502-.01-3.89-1.51-3.895-4.254l-.006-8.486.002-10.297Zm-32.349 20.802-1.845-.11-.003.052h-1.023c-1.896.001-2.705.698-3.353 2.886-.575 1.943-.1 3.66 1.264 4.575 2.016 1.352 6.234 1.061 7.965-.61 1.209-1.167 1.642-2.595 1.172-4.262-.467-1.655-1.698-2.28-3.258-2.451l-.919-.08Zm2.047-22.948h-.005l.024-2.043c.007-.681.003-1.361-.04-2.039-.135-2.077-1.416-3.25-3.382-3.236-1.94.014-3.238 1.226-3.302 3.313a129.5 129.5 0 0 0 0 8.02c.065 2.078 1.377 3.301 3.307 3.315 2.001.013 3.279-1.228 3.386-3.393.033-.655.036-1.31.03-1.967l-.018-1.97Zm5.629-7.821c1.5 1.654 1.767 3.566 1.725 5.557l-.011.374c-.021.551-.03 1.104-.033 1.658l-.01 1.661c-.013 1.384-.06 2.761-.291 4.107-.825 4.816-4.742 7.893-9.626 7.937l-1.436.005-2.71-.003-.018.196-.108.712c-.056.424-.073.87.114 1.2.318.565 1.304.974 2.035 1.042 1.646.151 3.315.045 4.975.052 6.391.025 10.332 4.674 9.332 11.003-.756 4.786-3.968 8.022-9.229 9.114-3.336.693-6.706.634-10.007-.25-5.976-1.6-8.22-8.08-4.362-12.561.327-.38.705-.714 1.112-1.049l.843-.683c.144-.118.29-.24.436-.367-1.955-1.37-2.78-3.285-2.583-5.643.192-2.301 1.425-3.974 3.353-5.365-3.021-2.984-3.405-6.709-3.2-10.605l.034-.875.036-1.757c.025-1.17.073-2.337.269-3.478.741-4.314 4.19-7.185 8.522-7.624l.396-.034c3.444-.228 6.873-.702 10.308-1.068.29-.03.58-.075.872-.097 2.552-.188 3.615.54 3.86 2.64.276 2.357-.716 3.636-3.154 4.05-.17.029-.34.049-.521.067l-.923.084Zm95.762 13.875c0-3.462-.077-6.926.038-10.384.045-1.354-.568-1.954-1.655-2.37-2.521-.964-4.496.376-4.509 3.138-.028 6.338-.017 12.676.005 19.014a5.72 5.72 0 0 0 .313 1.856c.458 1.292 1.814 1.908 3.375 1.63 1.763-.316 2.43-1.038 2.432-2.646v-10.238Zm.103 16.049c-1.523 2.047-3.362 3.303-5.832 3.368-4.633.123-7.855-2.844-7.9-7.488-.076-8.098-.058-16.197 0-24.295.019-2.734.968-5.134 3.616-6.377 2.789-1.309 5.587-1.158 8.23.502.244.153.472.332.71.533l.773.673c.096.082.195.167.3.253v-12.47c.004-2.689 1.226-4.02 3.692-4.036 2.532-.014 3.819 1.338 3.82 4.083.008 14.246.004 28.49.004 42.737l.006 1.268c-.001.211-.004.423-.01.634-.064 1.986-1.093 3.36-2.721 3.658-2.061.377-3.579-.402-4.408-2.268l-.051-.123-.23-.652Zm-128.32.026c-1.915 3.206-4.852 3.81-8.147 3.169-3.253-.635-5.392-3.317-5.43-7.048-.093-9.365-.053-18.732-.023-28.098.006-1.89 1.366-3.2 3.215-3.332 2.341-.166 3.844.862 4.193 2.911.067.393.083.796.087 1.2l.008 22.938c0 .633.023 1.268.076 1.898.196 2.307 1.57 3.272 3.803 2.682 1.255-.332 1.954-.952 1.942-2.45-.067-8.39-.04-16.782-.028-25.172.004-2.57 1.293-3.973 3.613-4.01 2.527-.039 3.894 1.288 3.896 3.84.008 10.146.003 20.292.003 30.439 0 2.44-.783 3.699-2.507 4.042-2.325.463-3.756-.423-4.7-3.009Zm84.342-19.907.006-1.035.027-2.022c.016-1.33.016-2.627-.071-3.918-.112-1.649-1.197-2.466-2.714-2.46-1.426.007-2.632.844-2.732 2.318a46.591 46.591 0 0 0-.081 3.536l.03 2.381c.005.4.008.8.008 1.2h5.527Zm-5.604 5.983-.005 1.422-.018 2.766c-.006 1.362 0 2.7.047 4.035.064 1.849 1.193 2.87 2.85 2.863 1.687-.008 2.715-1.005 2.908-2.829.026-.242.025-.486.032-.73.073-2.469 1.227-3.637 3.574-3.617 2.317.02 3.499 1.259 3.526 3.695.066 5.834-3.674 9.655-9.529 9.647-1.401-.002-2.845-.078-4.195-.416-3.976-.995-6.466-3.85-6.618-8.414-.233-6.958-.262-13.941.06-20.894.328-7.115 5.783-10.082 12.427-9.047 4.95.77 7.874 4.323 8.045 9.464.06 1.81.066 3.624.052 5.438l-.044 3.627c-.026 1.98-1.12 2.981-3.158 2.988l-3.925.005-6.03-.003Zm25.668-17.673c.63-2.815 2.275-3.958 4.928-3.72 2.097.187 3.13 1.473 3.077 3.97-.05 2.292-1.245 3.689-3.242 3.697a8.292 8.292 0 0 1-1.302-.122l-.866-.138c-1.642-.238-2.208.235-2.209 1.88 0 8.436.01 16.873-.005 25.309-.005 2.909-2.507 4.59-5.242 3.563-1.597-.6-2.267-1.762-2.268-4.003-.004-9.948-.004-19.896 0-29.844 0-2.5.856-3.74 2.73-3.994 2.518-.342 3.608.448 4.4 3.402Z" fill="#FFF"/>
	<path d="M231.694 148.847c-.019 2.731-1.905 4.578-4.636 4.538-2.613-.038-4.413-1.928-4.403-4.624.01-2.733 1.878-4.551 4.635-4.51 2.639.038 4.422 1.9 4.404 4.596" fill="#86BAD3"/>
</svg>
